X:4277
T:Miss S. Campbell of Saddle
O:england
S:via PR
M:4/4
L:1/4
K:A
|:E|"A"AA c/2B/2A/2c/2|"A"ee "E"e/2d/2c/2d/2|"A"ea gf|"A"e2 e3/2G/2|
"E"EE G/2F/2E/2G/2|"E"BB B/2A/2G/2A/2|"E"Bd BG|"A"A2 A::
"A"e3/2c/2 AA|"Bm"d3/2B/2 "E7"GG|"A"e3/2c/2 AA|"Bm"B2 "E7"B2|"A"e3/2c/2 AA|\
"Bm"d3/2B/2 "E7"GG|"A"Ac "E7"BG|"A"A2 A2:|


